X: 5987
T: Canadian, The
R: reel
M: 4/4
K: Emixolydian
G2 EB GEBE|AFDA FDAD|BGEB GEBE|B,CDB, E^DEF|
G2 EB GEBE|FDAD FDAD|BGEB GEBG|1 AcBA GE E2:|2 B,CDB, E4||
K: Edor
G2 DG eGdG|DGdG FGAF|EeeB eBea|g2 ed Beed|
gedB BAGB|A2 FA DFAF|Eee^d eB^Gc|B^GAF E4:|

